X: 1
T:The Little Pee-dee
M:9/8
L:1/8
K:G
d|dedBGB(BG)B|dedBGBc2A|dedBGBBGB|cBcAABc2||A|GBddefgdB|GBdgdBc2A|GBddef
gdB|cBcAABc2||
% Output from ABC2Win  Version 2.1 i on 3/10/2000
